svg/fluentui-system-icons/ic_fluent_weather_squalls_24_regular.svg

<svg width="24" height="24" viewBox="0 0 24 24" fill="none" xmlns="http://www.w3.org/2000/svg">
<path d="M8.07675 6.88407C8.59184 5.16712 10.1915 4 11.9732 4C14.1744 4 16 5.78289 16 8.00001C16 10.2092 14.2091 12 12 12H2.75C2.33579 12 2 11.6642 2 11.25C2 10.8358 2.33579 10.5 2.75 10.5H12C13.3807 10.5 14.5 9.38072 14.5 8.00001C14.5 6.62727 13.362 5.5 11.9732 5.5C10.8431 5.5 9.83514 6.24293 9.51349 7.3151L9.46837 7.46551C9.34935 7.86226 8.93123 8.08739 8.53449 7.96837C8.13774 7.84935 7.91261 7.43123 8.03163 7.03449L8.07675 6.88407ZM16.2885 12.0128C16.6858 10.8208 17.8056 10 19.0706 10C20.6883 10 21.9997 11.3114 21.9997 12.9291V13C21.9997 14.6568 20.6565 16 18.9997 16H17.7001C17.8919 16.375 18 16.7999 18 17.25C18 18.7688 16.7688 20 15.25 20H15.1152C14.1478 20 13.2633 19.4541 12.8296 18.5895C12.6439 18.2193 12.7935 17.7686 13.1637 17.5828C13.534 17.3971 13.9847 17.5467 14.1704 17.9169C14.3497 18.2744 14.7153 18.5 15.1152 18.5H15.25C15.9404 18.5 16.5 17.9404 16.5 17.25C16.5 16.5596 15.9404 16 15.25 16H12.25L12.2462 16H2.75C2.33579 16 2 15.6642 2 15.25C2 14.8358 2.33579 14.5 2.75 14.5H18.9997C19.8281 14.5 20.4997 13.8284 20.4997 13V12.9291C20.4997 12.1398 19.8599 11.5 19.0706 11.5C18.4597 11.5 17.9074 11.8996 17.7115 12.4872C17.5805 12.8801 17.1558 13.0925 16.7628 12.9615C16.3699 12.8305 16.1575 12.4058 16.2885 12.0128Z" fill="#212121"/>
</svg>

<svg xmlns="http://www.w3.org/2000/svg" width="24" height="24"><path d="M8.077 6.884A4.072 4.072 0 0 1 11.973 4C14.174 4 16 5.783 16 8a4 4 0 0 1-4 4H2.75a.75.75 0 0 1 0-1.5H12A2.5 2.5 0 0 0 14.5 8c0-1.373-1.138-2.5-2.527-2.5-1.13 0-2.138.743-2.46 1.815l-.045.15a.75.75 0 1 1-1.436-.43l.045-.15Zm8.211 5.129A2.942 2.942 0 0 1 19.072 10 2.93 2.93 0 0 1 22 12.93V13a3 3 0 0 1-3 3h-1.3a2.75 2.75 0 0 1-2.45 4h-.135a2.557 2.557 0 0 1-2.285-1.41.75.75 0 0 1 1.34-.673c.18.357.545.583.945.583h.135a1.25 1.25 0 1 0 0-2.5H2.75a.75.75 0 0 1 0-1.5H19a1.5 1.5 0 0 0 1.5-1.5v-.07c0-.79-.64-1.43-1.43-1.43-.61 0-1.163.4-1.358.987a.75.75 0 0 1-1.424-.474Z"/></svg>
